static/images/cs-hyperstart-logo.svg

<svg width="262" height="56" viewBox="0 0 262 56" fill="none" xmlns="http://www.w3.org/2000/svg">
<path d="M113.737 19.6289C115.286 19.6715 116.544 19.7717 117.96 20.4715C120.184 21.57 122.162 23.6327 122.905 26.0409C124.724 31.9339 123.511 40.1234 116.834 42.2853C113.933 43.2246 110.89 42.9231 108.422 41.0407C108.03 40.7396 107.867 40.3304 107.395 40.0927C106.98 40.5811 107.226 45.1002 107.248 46.1243C107.245 47.3265 107.392 49.0023 107.156 50.1346C107.053 50.6291 102.852 50.4134 102.351 50.1857C101.591 49.3129 102.349 24.2925 102.04 20.0929C103.609 19.9987 105.34 20.0089 106.924 19.9902C106.945 20.6269 106.97 22.3066 107.312 22.8135C107.569 22.7262 108.587 21.2643 108.961 20.9778C110.374 19.8938 112.056 19.8021 113.737 19.6289ZM114.272 38.2127C119.698 37.0669 120.013 27.5746 115.907 24.8034C114.542 23.8815 112.939 23.9203 111.369 24.0708C109.672 24.8078 108.256 25.7819 107.596 27.634C105.981 32.1678 107.483 38.9035 113.471 38.4274C113.696 38.4095 114.053 38.2902 114.272 38.2127Z" fill="#141314"/>
<path d="M174.331 12.1882C180.767 11.6673 186.919 14.7806 186.8 21.9247C185.401 21.9393 183.052 22.0159 181.744 21.8446C181.235 20.4863 180.889 19.4312 179.873 18.3257C178.089 16.3884 172.662 16.3832 171.033 18.4938C166.531 24.477 177.746 24.9861 180.991 26.2252C184.791 27.5914 187.56 29.4705 187.595 33.8329C187.649 40.5596 182.451 43.1008 176.47 43.2088C169.273 43.3635 164.198 40.7631 163.902 33.0283C165.242 32.9607 167.967 32.9657 169.259 33.1059C169.496 34.4168 169.937 36.0943 170.992 36.9667C173.314 38.887 177.277 39.0717 179.889 37.6499C180.767 37.1716 181.269 36.5949 181.909 35.8627C181.982 35.0456 181.945 34.0937 181.931 33.2619C179.971 30.5599 177.152 30.4389 174.128 29.7008C171.452 29.0474 169.272 28.4321 166.982 26.8205C163.836 24.6055 163.665 19.3074 165.879 16.4055C168.197 13.3244 170.671 12.7142 174.331 12.1882Z" fill="#141314"/>
<path d="M71.0915 12.1808C72.9775 11.9808 74.7888 11.9475 76.6703 12.2027C76.3378 14.3716 76.4582 18.6775 76.4597 21.0282L76.4528 35.8643C76.4504 37.2333 76.6078 40.9311 76.4008 41.974C76.1652 42.3076 75.9781 42.3401 75.5938 42.4685C74.199 42.462 72.5849 42.4945 71.2127 42.359C71.1418 40.8957 71.3813 29.7586 71.0944 29.2162C70.3643 28.8967 67.386 28.9673 66.9088 29.0323C65.4568 29.23 57.9182 28.4866 57.285 29.5251C56.8174 30.2923 57.7525 40.9219 57.0058 42.208C56.5067 42.5556 53.0705 42.4735 52.0915 42.5373C51.8678 40.8959 51.939 38.9161 51.9418 37.2315L51.9513 29.6033L51.9502 18.1717C51.9479 16.3403 51.8685 14.0147 51.9525 12.2272L52.1792 12.0757C53.6397 12.0336 55.9867 11.9405 57.384 12.1737C57.1319 15.765 57.2275 20.3535 57.1673 24.0448C60.2883 24.7497 65.2365 24.042 68.5543 24.312C69.2762 24.3708 70.6868 24.3148 71.1708 23.756C71.3258 22.9199 71.2136 13.2204 71.0915 12.1808Z" fill="#141314"/>
<path d="M213.438 19.7423C214.924 19.4092 217.149 19.7845 218.623 20.1995C224.892 21.9639 223.952 28.3529 223.901 33.4568C223.877 35.8743 224.286 40.5483 223.575 42.6917C222.155 42.4511 220.615 42.6297 219.107 42.4464C219.05 41.7851 219.236 40.3836 218.833 39.9417C218.2 40.1693 217.057 41.5724 216.391 41.8765C212.554 43.6303 208.036 43.0699 205.644 39.4816C204.855 38.0468 204.618 35.7947 205.009 34.2111C206.329 28.859 212.486 29.2625 216.806 29.0915C217.501 29.064 218.181 29.0975 218.795 28.7002C218.991 28.3665 218.974 28.1436 218.935 27.7676C218.61 24.5701 216.512 23.3945 213.487 23.7218C211.16 23.9735 210.946 25.1484 209.691 26.7599C206.362 26.4051 203.865 26.9865 207.119 22.7841C208.85 20.5492 210.695 19.9621 213.438 19.7423ZM211.402 38.1573C215.087 39.4754 219.596 37.3593 218.823 33.0028C218.772 32.721 218.258 32.6785 218.04 32.6578C216.056 32.8286 211.816 32.6074 210.436 34.1625C209.533 35.1807 209.768 36.8725 210.877 37.7896C211.04 37.9273 211.217 38.0504 211.402 38.1573Z" fill="#141314"/>
<path d="M135.657 19.6154C135.765 19.6 135.871 19.5891 135.978 19.5825C138.511 19.4374 141.251 20.274 143.119 22.004C146.264 24.919 146.272 28.0924 146.478 32.0152C143.987 32.2621 141.358 31.998 138.864 32.0926C136.18 32.1944 132.833 31.8265 130.23 32.2803C130.995 36.1238 132.726 38.7763 137.096 38.3049C139.455 38.0505 140.038 37.0154 141.402 35.2596L143.546 35.8051C144.335 35.965 145.127 36.034 145.928 36.1183C145.52 37.2345 144.932 38.6562 144.162 39.5943C140.977 43.4759 133.42 43.8401 129.616 40.7765C127.156 38.7953 125.614 36.5711 125.378 33.4125C125.112 29.8629 125.283 26.3417 127.72 23.5102C130.052 20.7369 132.26 19.9642 135.657 19.6154ZM130.651 28.3943C132.783 28.7077 135.287 28.5966 137.475 28.5638C138.308 28.6022 140.402 28.8457 140.979 28.3573C141.609 27.2586 140.107 25.0244 139.054 24.5116C137.502 23.755 136.39 23.7958 134.73 23.9362C132.441 24.3686 131.108 26.2244 130.651 28.3943Z" fill="#141314"/>
<path d="M28.1248 31.1893C26.7555 33.372 26.125 42.278 23.7872 42.5452C21.5503 42.0546 21.0375 32.6711 19.816 31.5371C18.1172 29.9599 10.8132 29.6602 8.9494 27.9331C8.66949 27.6207 8.56579 27.1935 8.606 26.7947C8.70846 25.7785 9.71529 26.018 10.3803 25.699C11.7545 25.0395 18.7009 23.8675 19.4663 23.1317C21.1913 21.4733 21.4384 14.3282 23.0128 12.1809C23.1788 11.9046 24.725 11.9087 24.8925 12.2533C26.4871 15.5341 26.4968 19.6578 28.0626 22.9467C28.3264 23.5004 30.2112 23.8136 30.8016 23.8895L33.5812 24.668C35.2438 25.0769 37.0457 25.431 38.6353 26.063C39.6286 26.4578 39.1715 28.1371 38.3246 28.4841C37.266 28.9179 36.0879 29.0744 34.9864 29.3864C32.7074 29.9985 30.3898 30.5265 28.1248 31.1893Z" fill="black"/>
<path d="M80.4856 20.0045C81.6608 19.9771 82.7247 20.0059 83.8957 20.0437C85.4358 24.2407 88.3332 30.4804 89.3508 34.5096C90.7197 32.6158 91.4595 30.1392 92.3079 27.9102C93.3148 25.3182 94.2834 22.7116 95.2138 20.0913C96.311 20.0147 99.5816 19.907 100.538 20.1528C100.735 20.6154 94.0566 37.131 93.3302 38.9385C92.1427 41.853 91.2485 44.8293 89.6228 47.5404C87.7581 50.6499 82.1146 51.8158 79.1594 49.8581C79.1067 48.7404 79.2219 46.8047 79.2578 45.63C81.2014 45.9368 82.1479 45.9942 84.1078 45.8976C85.4431 45.1142 87.2655 43.0385 86.8458 41.3107C86.6099 40.3389 85.9553 38.9592 85.5662 38.0069C84.6471 35.7401 83.7014 33.4841 82.7295 31.2392C81.1626 27.5767 79.7268 23.6778 77.957 20.1L80.4856 20.0045Z" fill="#141314"/>
<path d="M248.551 13.7454C249.418 13.7231 250.086 13.718 250.951 13.7718C251.017 15.0018 250.948 17.3442 250.848 18.5674C250.407 18.9358 250.001 19.1691 249.98 19.7614C250.515 20.1057 255.881 19.9915 256.755 19.9851L256.751 24.006C254.992 23.978 252.681 23.91 250.953 24.1339C250.838 25.165 250.935 27.4049 250.921 28.5498C250.992 30.5587 250.799 32.6213 250.961 34.622C251.296 38.767 254.087 38.1193 256.933 37.8397C257.03 38.8514 257.221 41.5026 256.693 42.3663C254.453 43.1269 250.717 43.0676 248.718 41.6394C245.356 39.2366 245.929 34.3355 245.938 30.7414C245.945 28.5125 245.941 26.2835 245.926 24.0546C244.61 24.0267 243.314 24.0122 242.002 23.9002C242.02 22.5444 241.986 21.4392 241.91 20.0846C243.63 20.0084 244.884 20.2221 245.892 18.6378C246.005 17.0795 245.866 15.4246 245.955 13.814C246.769 13.7634 247.725 13.7648 248.551 13.7454Z" fill="#141314"/>
<path d="M193.16 13.7439C194.504 13.6474 196.43 13.7784 197.802 13.8367C197.733 15.023 197.881 16.3937 197.731 17.5394C197.69 17.855 196.869 19.0313 196.671 19.5442C197.318 20.2124 202.028 20.0003 203.447 20.095C203.363 21.5397 203.383 22.4647 203.461 23.8848C202.126 24.0194 198.774 23.84 197.887 24.1986C197.475 24.9206 197.787 32.8598 197.743 34.3481C197.615 38.7367 200.672 38.0662 203.774 37.94C203.673 38.8196 203.708 39.3823 203.75 40.2713L203.637 42.3072C199.541 43.674 194.148 42.7808 192.986 37.9258C192.62 36.3968 192.795 33.6392 192.802 32.012C192.812 29.3844 192.808 26.7567 192.79 24.1291C191.838 23.9924 189.884 23.9941 188.823 23.9359C188.82 22.5547 188.792 21.4569 188.688 20.0811C189.556 20.0393 190.49 19.9541 191.363 19.8921C191.719 19.5336 192.278 18.8468 192.624 18.4445C192.885 16.8394 192.65 15.5169 192.863 13.9775C192.879 13.8627 193.027 13.8186 193.16 13.7439Z" fill="#141314"/>
<path d="M160.212 19.6145C163.673 19.3851 162.385 21.6777 162.615 24.0562C161.527 24.0895 159.519 23.8199 158.607 23.9779C153.639 24.8391 154.117 30.1493 154.122 33.584C154.117 35.5038 154.134 37.4237 154.171 39.3433C154.191 40.1862 154.392 41.6936 153.893 42.3074C153.102 42.6951 149.989 42.4454 149.079 42.2241C148.895 40.764 148.986 36.7526 148.985 35.088C149.003 30.0907 148.989 25.0934 148.941 20.0963C150.627 20.0107 152.217 20.0141 153.906 20.0176C153.911 20.7142 153.851 22.0871 154.293 22.5679C154.674 22.443 155.058 21.7648 155.371 21.4211C156.743 19.91 158.349 19.7719 160.212 19.6145Z" fill="#141314"/>
<path d="M232.678 20.1112C232.535 20.9448 232.394 21.7007 232.338 22.5454C233.05 22.9075 233.949 21.5409 234.449 21.1907C236.309 19.8843 238.285 19.9762 240.441 20.078C240.367 21.3547 240.387 22.6352 240.501 23.909C238.112 24.0421 236.007 23.8377 234.166 25.6831C232.37 27.4825 232.636 30.5637 232.654 32.9544C232.657 34.9534 232.792 40.7247 232.537 42.4862C231.47 42.6135 229.019 42.5936 227.858 42.6171C227.625 41.2969 227.758 37.3101 227.741 35.7242C227.689 30.5336 227.848 25.266 227.699 20.0766L229.132 20.0056C230.37 20.0052 231.444 20.0442 232.678 20.1112Z" fill="#141314"/>
<path d="M0 12.0148C1.97715 12.0036 4.06755 11.9584 6.03266 12.0565L6.05241 31.2381C6.05282 32.0418 6.33292 41.9816 5.56126 42.5623C5.38276 42.6967 1.56642 42.554 0.793293 42.5044C0.528063 42.4851 0.263502 42.4575 0 42.4217V12.0148Z" fill="black"/>
</svg>

<svg xmlns="http://www.w3.org/2000/svg" width="262" height="56" fill="none" viewBox="0 0 262 56"><path fill="#141314" d="M113.737 19.629c1.549.043 2.807.143 4.223.842 2.224 1.099 4.202 3.162 4.945 5.57 1.819 5.893.606 14.082-6.071 16.244-2.901.94-5.944.638-8.412-1.244-.392-.301-.555-.71-1.027-.948-.415.488-.169 5.007-.147 6.031-.003 1.203.144 2.878-.092 4.01-.103.495-4.304.28-4.805.052-.76-.873-.002-25.893-.311-30.093 1.569-.094 3.3-.084 4.884-.103.021.637.046 2.317.388 2.824.257-.088 1.275-1.55 1.649-1.836 1.413-1.084 3.095-1.176 4.776-1.35m.535 18.584c5.426-1.146 5.741-10.638 1.635-13.41-1.365-.922-2.968-.883-4.538-.732-1.697.737-3.113 1.71-3.773 3.563-1.615 4.534-.113 11.27 5.875 10.793.225-.017.582-.137.801-.214M174.331 12.188c6.436-.52 12.588 2.593 12.469 9.737-1.399.014-3.748.09-5.056-.08-.509-1.359-.855-2.414-1.871-3.52-1.784-1.937-7.211-1.942-8.84.169-4.502 5.983 6.713 6.492 9.958 7.731 3.8 1.366 6.569 3.246 6.604 7.608.054 6.727-5.144 9.268-11.125 9.376-7.197.154-12.272-2.446-12.568-10.18 1.34-.068 4.065-.063 5.357.077.237 1.31.678 2.988 1.733 3.86 2.322 1.921 6.285 2.106 8.897.684.878-.478 1.38-1.055 2.02-1.787.073-.817.036-1.77.022-2.601-1.96-2.702-4.779-2.823-7.803-3.561-2.676-.654-4.856-1.269-7.146-2.88-3.146-2.216-3.317-7.514-1.103-10.416 2.318-3.08 4.792-3.69 8.452-4.217M71.092 12.18c1.886-.2 3.697-.232 5.578.023-.332 2.169-.212 6.474-.21 8.825l-.007 14.836c-.003 1.37.155 5.067-.052 6.11-.236.334-.423.366-.807.495-1.395-.007-3.01.026-4.381-.11-.071-1.463.168-12.6-.119-13.143-.73-.32-3.708-.249-4.185-.184-1.452.198-8.99-.545-9.624.493-.468.767.468 11.397-.28 12.683-.498.348-3.934.266-4.913.33-.224-1.642-.153-3.622-.15-5.306l.01-7.629-.002-11.431c-.002-1.832-.082-4.157.002-5.945l.227-.151c1.46-.042 3.808-.136 5.205.098-.252 3.591-.157 8.18-.217 11.87 3.121.706 8.07-.002 11.387.268.722.059 2.133.003 2.617-.556.155-.836.043-10.536-.08-11.575M213.438 19.742c1.486-.333 3.711.043 5.185.457 6.269 1.765 5.329 8.154 5.278 13.258-.024 2.417.385 7.091-.326 9.235-1.42-.24-2.96-.062-4.468-.246-.057-.66.129-2.062-.274-2.504-.633.227-1.776 1.63-2.442 1.935-3.837 1.753-8.355 1.193-10.747-2.395-.789-1.435-1.026-3.687-.635-5.27 1.32-5.353 7.477-4.95 11.797-5.12.695-.028 1.375.006 1.989-.392.196-.334.179-.556.14-.932-.325-3.198-2.423-4.373-5.448-4.046-2.327.252-2.541 1.426-3.796 3.038-3.329-.355-5.826.226-2.572-3.976 1.731-2.235 3.576-2.822 6.319-3.042m-2.036 18.415c3.685 1.318 8.194-.798 7.421-5.154-.051-.282-.565-.325-.783-.345-1.984.17-6.224-.05-7.604 1.505-.903 1.018-.668 2.71.441 3.627q.246.206.525.367M135.657 19.615q.161-.023.321-.032c2.533-.146 5.273.691 7.141 2.421 3.145 2.915 3.153 6.088 3.359 10.011-2.491.247-5.12-.017-7.614.078-2.684.101-6.031-.267-8.634.187.765 3.844 2.496 6.496 6.866 6.025 2.359-.255 2.942-1.29 4.306-3.045l2.144.545c.789.16 1.581.229 2.382.313-.408 1.116-.996 2.538-1.766 3.476-3.185 3.882-10.742 4.246-14.546 1.182-2.46-1.98-4.002-4.205-4.238-7.364-.266-3.55-.095-7.07 2.342-9.902 2.332-2.773 4.54-3.546 7.937-3.895m-5.006 8.78c2.132.313 4.636.202 6.824.169.833.038 2.927.282 3.504-.207.63-1.098-.872-3.333-1.925-3.845-1.552-.757-2.664-.716-4.324-.576-2.289.433-3.622 2.288-4.079 4.458"/><path fill="#000" d="M28.125 31.19c-1.37 2.182-2 11.088-4.338 11.355-2.237-.49-2.75-9.874-3.971-11.008-1.699-1.577-9.003-1.877-10.867-3.604-.28-.312-.383-.74-.343-1.138.102-1.017 1.11-.777 1.774-1.096 1.374-.66 8.32-1.832 9.086-2.567 1.725-1.659 1.972-8.804 3.547-10.951.166-.276 1.712-.272 1.88.072 1.594 3.281 1.604 7.405 3.17 10.694.263.553 2.148.867 2.739.943l2.78.778c1.662.409 3.464.763 5.053 1.395.994.395.537 2.074-.31 2.421-1.059.434-2.237.59-3.339.902-2.279.613-4.596 1.14-6.861 1.803"/><path fill="#141314" d="M80.486 20.005c1.175-.028 2.239 0 3.41.039 1.54 4.197 4.437 10.436 5.455 14.466 1.369-1.894 2.109-4.37 2.957-6.6a284 284 0 0 0 2.906-7.819c1.097-.076 4.368-.184 5.324.062.197.462-6.481 16.978-7.208 18.786-1.187 2.914-2.081 5.89-3.707 8.601-1.865 3.11-7.508 4.276-10.464 2.318-.052-1.118.063-3.053.099-4.228 1.943.307 2.89.364 4.85.268 1.335-.784 3.157-2.86 2.738-4.587-.236-.972-.89-2.352-1.28-3.304a314 314 0 0 0-2.837-6.768c-1.566-3.662-3.002-7.561-4.772-11.139zM248.551 13.745a25 25 0 0 1 2.4.027c.066 1.23-.003 3.572-.103 4.795-.441.369-.847.602-.868 1.194.535.345 5.901.23 6.775.224l-.004 4.021c-1.759-.028-4.07-.096-5.798.128-.115 1.031-.018 3.27-.032 4.416.071 2.009-.122 4.071.04 6.072.335 4.145 3.126 3.497 5.972 3.218.097 1.011.288 3.663-.24 4.526-2.24.76-5.976.702-7.975-.727-3.362-2.402-2.789-7.303-2.78-10.898q.01-3.343-.012-6.686c-1.316-.028-2.612-.043-3.924-.155a52 52 0 0 0-.092-3.815c1.72-.077 2.974.137 3.982-1.447.113-1.559-.026-3.213.063-4.824.814-.05 1.77-.05 2.596-.069M193.16 13.744c1.344-.097 3.27.034 4.642.093-.069 1.186.079 2.557-.071 3.702-.041.316-.862 1.492-1.06 2.005.647.668 5.357.456 6.776.551-.084 1.445-.064 2.37.014 3.79-1.335.134-4.687-.045-5.574.314-.412.722-.1 8.66-.144 10.15-.128 4.388 2.929 3.717 6.031 3.591-.101.88-.066 1.442-.024 2.331l-.113 2.036c-4.096 1.367-9.489.474-10.651-4.381-.366-1.53-.191-4.287-.184-5.914q.015-3.942-.012-7.883c-.952-.137-2.906-.135-3.967-.193a49 49 0 0 0-.135-3.855c.868-.042 1.802-.127 2.675-.189.356-.358.915-1.045 1.261-1.447.261-1.606.026-2.928.239-4.468.016-.114.164-.158.297-.233M160.212 19.615c3.461-.23 2.173 2.063 2.403 4.441-1.088.034-3.096-.236-4.008-.078-4.968.861-4.49 6.171-4.485 9.606q-.007 2.88.049 5.76c.02.842.221 2.35-.278 2.963-.791.388-3.904.138-4.814-.083-.184-1.46-.093-5.471-.094-7.136q.027-7.496-.044-14.992c1.686-.085 3.276-.082 4.965-.078.005.696-.055 2.07.387 2.55.381-.125.765-.803 1.078-1.147 1.372-1.511 2.978-1.65 4.841-1.806M232.678 20.111c-.143.834-.284 1.59-.34 2.434.712.362 1.611-1.004 2.111-1.354 1.86-1.307 3.836-1.215 5.992-1.113a26 26 0 0 0 .06 3.831c-2.389.133-4.494-.071-6.335 1.774-1.796 1.8-1.53 4.88-1.512 7.271.003 2 .138 7.77-.117 9.532-1.067.128-3.518.108-4.679.131-.233-1.32-.1-5.307-.117-6.893-.052-5.19.107-10.458-.042-15.647l1.433-.071c1.238 0 2.312.038 3.546.105"/><path fill="#000" d="M0 12.015c1.977-.011 4.068-.057 6.033.041l.02 19.182c0 .804.28 10.744-.492 11.324-.178.135-3.995-.008-4.768-.058q-.398-.028-.793-.082z"/></svg>
